; generated by PrusaSlicer 2.9.0 on 2025-06-01 at 21:28:15 UTC

; 

; external perimeters extrusion width = 1.10mm
; perimeters extrusion width = 1.10mm
; infill extrusion width = 1.10mm
; solid infill extrusion width = 1.10mm
; top infill extrusion width = 1.10mm
; first layer extrusion width = 1.10mm

M73 P0 R39
M73 Q0 S39
;TYPE:Custom
G21 ; set units to millimeters
G90 ; use absolute coordinates
M83 ; use relative distances for extrusion
M900 K0.06 ; Filament gcode LA 1.5
M900 K30 ; Filament gcode LA 1.0
M107
;LAYER_CHANGE
;Z:0.1
;HEIGHT:0.1
G1 E-1 F600
G1 Z1.1 F3000
G1 X24.237 Y37.095
G1 Z.1
G1 E1.001 F600
;TYPE:Perimeter
;WIDTH:1.1
G1 F1200
G1 X14.067 Y37.095 E.0342
G1 X14.067 Y-9.648 E.1572
G1 X60.81 Y-9.648 E.1572
G1 X60.81 Y13.724 E.0786
G1 X60.81 Y37.095 E.0786
G1 X24.372 Y37.095 E.12254
G1 E-1 F600
G1 X24.372 Y37.095 Z1.1 F3000
G1 X24.237 Y38.174
G1 Z.1
G1 E1.001 F600
;TYPE:External perimeter
G1 F1200
G1 X12.989 Y38.174 E.03783
G1 X12.989 Y-10.726 E.16445
G1 X61.889 Y-10.726 E.16445
G1 X61.889 Y13.724 E.08223
G1 X61.889 Y38.174 E.08223
G1 X24.372 Y38.174 E.12617
G1 X23.472 Y38.174 F3000
G1 E-1 F600
G1 Z1.1 F3000
G1 X60.487 Y36.275
G1 Z.1
G1 E1.001 F600
;TYPE:Internal infill
;WIDTH:1.1
G1 F1200
G1 X14.876 Y36.275 E.15339
G1 X14.876 Y35.175 E.0037
M73 P1 R39
M73 Q1 S39
G1 X60.001 Y35.175 E.15176
G1 X60.001 Y34.075 E.0037
G1 X14.876 Y34.075 E.15176
G1 X14.876 Y32.975 E.0037
G1 X60.001 Y32.975 E.15176
G1 X60.001 Y31.875 E.0037
G1 X14.876 Y31.875 E.15176
G1 X14.876 Y30.775 E.0037
G1 X60.001 Y30.775 E.15176
G1 X60.001 Y29.675 E.0037
M73 P1 R38
M73 Q1 S38
G1 X14.876 Y29.675 E.15176
G1 X14.876 Y28.575 E.0037
G1 X60.001 Y28.575 E.15176
G1 X60.001 Y27.475 E.0037
G1 X14.876 Y27.475 E.15176
G1 X14.876 Y26.375 E.0037
G1 X60.001 Y26.375 E.15176
G1 X60.001 Y25.275 E.0037
G1 X14.876 Y25.274 E.15176
G1 X14.876 Y24.174 E.0037
M73 P2 R38
M73 Q2 S38
G1 X60.001 Y24.174 E.15176
G1 X60.001 Y23.074 E.0037
G1 X14.876 Y23.074 E.15176
G1 X14.876 Y21.974 E.0037
G1 X60.001 Y21.974 E.15176
G1 X60.001 Y20.874 E.0037
G1 X14.876 Y20.874 E.15176
G1 X14.876 Y19.774 E.0037
G1 X60.001 Y19.774 E.15176
G1 X60.001 Y18.674 E.0037
G1 X14.876 Y18.674 E.15176
G1 X14.876 Y17.574 E.0037
G1 X60.001 Y17.574 E.15176
G1 X60.001 Y16.474 E.0037
G1 X14.876 Y16.474 E.15176
G1 X14.876 Y15.374 E.0037
G1 X60.001 Y15.374 E.15176
G1 X60.001 Y14.274 E.0037
G1 X14.876 Y14.274 E.15176
G1 X14.876 Y13.174 E.0037
G1 X60.001 Y13.174 E.15176
M73 P3 R38
M73 Q3 S38
G1 X60.001 Y12.073 E.0037
G1 X14.876 Y12.073 E.15176
G1 X14.876 Y10.973 E.0037
G1 X60.001 Y10.973 E.15176
G1 X60.001 Y9.873 E.0037
G1 X14.876 Y9.873 E.15176
G1 X14.876 Y8.773 E.0037
G1 X60.001 Y8.773 E.15176
G1 X60.001 Y7.673 E.0037
G1 X14.876 Y7.673 E.15176
G1 X14.876 Y6.573 E.0037
G1 X60.001 Y6.573 E.15176
G1 X60.001 Y5.473 E.0037
G1 X14.876 Y5.473 E.15176
G1 X14.876 Y4.373 E.0037
G1 X60.001 Y4.373 E.15176
G1 X60.001 Y3.273 E.0037
G1 X14.876 Y3.273 E.15176
G1 X14.876 Y2.173 E.0037
G1 X60.001 Y2.173 E.15176
G1 X60.001 Y1.073 E.0037
M73 P4 R37
M73 Q4 S37
G1 X14.876 Y1.073 E.15176
G1 X14.876 Y-.028 E.0037
G1 X60.001 Y-.027 E.15176
G1 X60.001 Y-1.128 E.0037
G1 X14.876 Y-1.128 E.15176
G1 X14.876 Y-2.228 E.0037
G1 X60.001 Y-2.228 E.15176
G1 X60.001 Y-3.328 E.0037
G1 X14.876 Y-3.328 E.15176
G1 X14.876 Y-4.428 E.0037
G1 X60.001 Y-4.428 E.15176
G1 X60.001 Y-5.528 E.0037
G1 X14.876 Y-5.528 E.15176
G1 X14.876 Y-6.628 E.0037
G1 X60.001 Y-6.628 E.15176
G1 X60.001 Y-7.728 E.0037
G1 X14.876 Y-7.728 E.15176
G1 X14.876 Y-8.828 E.0037
G1 X60.487 Y-8.828 E.15339
;LAYER_CHANGE
;Z:0.2
;HEIGHT:0.1
;BEFORE_LAYER_CHANGE
G92 E0.0
;0.2

;extract, added by me for demo
G1 Z20
