; generated by PrusaSlicer 2.9.0 on 2025-06-01 at 21:28:15 UTC

; 

; external perimeters extrusion width = 1.10mm
; perimeters extrusion width = 1.10mm
; infill extrusion width = 1.10mm
; solid infill extrusion width = 1.10mm
; top infill extrusion width = 1.10mm
; first layer extrusion width = 1.10mm

M73 P0 R39
M73 Q0 S39
;TYPE:Custom
G21 ; set units to millimeters
G90 ; use absolute coordinates
M83 ; use relative distances for extrusion
M900 K0.06 ; Filament gcode LA 1.5
M900 K30 ; Filament gcode LA 1.0
M107
;LAYER_CHANGE
;Z:0.1
;HEIGHT:0.1
G1 E-1 F600
G1 Z1.1 F3000
G1 X24.237 Y37.095
G1 Z.1
G1 E1.001 F600
;TYPE:Perimeter
;WIDTH:1.1
G1 F1200
G1 X14.067 Y37.095 E.0342
G1 X14.067 Y-9.648 E.1572
G1 X60.81 Y-9.648 E.1572
G1 X60.81 Y13.724 E.0786
G1 X60.81 Y37.095 E.0786
G1 X24.372 Y37.095 E.12254
G1 E-1 F600
G1 X24.372 Y37.095 Z1.1 F3000
G1 X24.237 Y38.174
G1 Z.1
G1 E1.001 F600
;TYPE:External perimeter
G1 F1200
G1 X12.989 Y38.174 E.03783
G1 X12.989 Y-10.726 E.16445
G1 X61.889 Y-10.726 E.16445
G1 X61.889 Y13.724 E.08223
G1 X61.889 Y38.174 E.08223
G1 X24.372 Y38.174 E.12617
G1 X23.472 Y38.174 F3000
G1 E-1 F600
G1 Z1.1 F3000
G1 X60.487 Y36.275
G1 Z.1
G1 E1.001 F600
;TYPE:Internal infill
;WIDTH:1.1
G1 F1200
G1 X14.876 Y36.275 E.15339
G1 X14.876 Y35.175 E.0037
M73 P1 R39
M73 Q1 S39
G1 X60.001 Y35.175 E.15176
G1 X60.001 Y34.075 E.0037
G1 X14.876 Y34.075 E.15176
G1 X14.876 Y32.975 E.0037
G1 X60.001 Y32.975 E.15176
G1 X60.001 Y31.875 E.0037
G1 X14.876 Y31.875 E.15176
G1 X14.876 Y30.775 E.0037
G1 X60.001 Y30.775 E.15176
G1 X60.001 Y29.675 E.0037
M73 P1 R38
M73 Q1 S38
G1 X14.876 Y29.675 E.15176
G1 X14.876 Y28.575 E.0037
G1 X60.001 Y28.575 E.15176
G1 X60.001 Y27.475 E.0037
G1 X14.876 Y27.475 E.15176
G1 X14.876 Y26.375 E.0037
G1 X60.001 Y26.375 E.15176
G1 X60.001 Y25.275 E.0037
G1 X14.876 Y25.274 E.15176
G1 X14.876 Y24.174 E.0037
M73 P2 R38
M73 Q2 S38
G1 X60.001 Y24.174 E.15176
G1 X60.001 Y23.074 E.0037
G1 X14.876 Y23.074 E.15176
G1 X14.876 Y21.974 E.0037
G1 X60.001 Y21.974 E.15176
G1 X60.001 Y20.874 E.0037
G1 X14.876 Y20.874 E.15176
G1 X14.876 Y19.774 E.0037
G1 X60.001 Y19.774 E.15176
G1 X60.001 Y18.674 E.0037
G1 X14.876 Y18.674 E.15176
G1 X14.876 Y17.574 E.0037
G1 X60.001 Y17.574 E.15176
G1 X60.001 Y16.474 E.0037
G1 X14.876 Y16.474 E.15176
G1 X14.876 Y15.374 E.0037
G1 X60.001 Y15.374 E.15176
G1 X60.001 Y14.274 E.0037
G1 X14.876 Y14.274 E.15176
G1 X14.876 Y13.174 E.0037
G1 X60.001 Y13.174 E.15176
M73 P3 R38
M73 Q3 S38
G1 X60.001 Y12.073 E.0037
G1 X14.876 Y12.073 E.15176
G1 X14.876 Y10.973 E.0037
G1 X60.001 Y10.973 E.15176
G1 X60.001 Y9.873 E.0037
G1 X14.876 Y9.873 E.15176
G1 X14.876 Y8.773 E.0037
G1 X60.001 Y8.773 E.15176
G1 X60.001 Y7.673 E.0037
G1 X14.876 Y7.673 E.15176
G1 X14.876 Y6.573 E.0037
G1 X60.001 Y6.573 E.15176
G1 X60.001 Y5.473 E.0037
G1 X14.876 Y5.473 E.15176
G1 X14.876 Y4.373 E.0037
G1 X60.001 Y4.373 E.15176
G1 X60.001 Y3.273 E.0037
G1 X14.876 Y3.273 E.15176
G1 X14.876 Y2.173 E.0037
G1 X60.001 Y2.173 E.15176
G1 X60.001 Y1.073 E.0037
M73 P4 R37
M73 Q4 S37
G1 X14.876 Y1.073 E.15176
G1 X14.876 Y-.028 E.0037
G1 X60.001 Y-.027 E.15176
G1 X60.001 Y-1.128 E.0037
G1 X14.876 Y-1.128 E.15176
G1 X14.876 Y-2.228 E.0037
G1 X60.001 Y-2.228 E.15176
G1 X60.001 Y-3.328 E.0037
G1 X14.876 Y-3.328 E.15176
G1 X14.876 Y-4.428 E.0037
G1 X60.001 Y-4.428 E.15176
G1 X60.001 Y-5.528 E.0037
G1 X14.876 Y-5.528 E.15176
G1 X14.876 Y-6.628 E.0037
G1 X60.001 Y-6.628 E.15176
G1 X60.001 Y-7.728 E.0037
G1 X14.876 Y-7.728 E.15176
G1 X14.876 Y-8.828 E.0037
G1 X60.487 Y-8.828 E.15339
;LAYER_CHANGE
;Z:0.2
;HEIGHT:0.1
;BEFORE_LAYER_CHANGE
G92 E0.0
;0.2


G1 E-1 F600
M73 P5 R37
M73 Q5 S37
G1 Z.2 F3000
;AFTER_LAYER_CHANGE
;0.2
;M300 S440 P200
;G4 P5000
G1 X60.487 Y-8.828
G1 X42.072 Y37.095
G1 E1.001 F600
;TYPE:Perimeter
;WIDTH:1.1
G1 F1200
G1 X14.067 Y37.095 E.09418
G1 X14.067 Y-9.648 E.1572
G1 X60.81 Y-9.648 E.1572
G1 X60.81 Y13.724 E.0786
G1 X60.81 Y37.095 E.0786
G1 X42.207 Y37.095 E.06256
G1 X42.072 Y38.174 F3000
;TYPE:External perimeter
G1 F1200
G1 X12.989 Y38.174 E.09781
G1 X12.989 Y-10.726 E.16445
G1 X61.889 Y-10.726 E.16445
G1 X61.889 Y13.724 E.08223
G1 X61.889 Y38.174 E.08223
G1 X42.207 Y38.174 E.06619
G1 X41.307 Y38.174 F3000
G1 X59.991 Y36.771
;TYPE:Internal infill
;WIDTH:1.1
G1 F1200
G1 X59.991 Y-8.839 E.15339
G1 X58.89 Y-8.839 E.0037
M73 P6 R37
M73 Q6 S37
G1 X58.89 Y36.286 E.15176
G1 X57.79 Y36.286 E.0037
G1 X57.79 Y-8.839 E.15176
G1 X56.69 Y-8.839 E.0037
G1 X56.69 Y36.286 E.15176
G1 X55.59 Y36.286 E.0037
G1 X55.59 Y-8.839 E.15176
G1 X54.49 Y-8.839 E.0037
G1 X54.49 Y36.286 E.15176
G1 X53.39 Y36.286 E.0037
G1 X53.39 Y-8.839 E.15176
G1 X52.29 Y-8.839 E.0037
M73 P6 R36
M73 Q6 S36
G1 X52.29 Y36.286 E.15176
G1 X51.19 Y36.286 E.0037
G1 X51.19 Y-8.839 E.15176
G1 X50.09 Y-8.839 E.0037
G1 X50.09 Y36.286 E.15176
G1 X48.99 Y36.286 E.0037
G1 X48.99 Y-8.839 E.15176
G1 X47.89 Y-8.839 E.0037
M73 P7 R36
M73 Q7 S36
G1 X47.89 Y36.286 E.15176
G1 X46.79 Y36.286 E.0037
G1 X46.79 Y-8.839 E.15176
G1 X45.689 Y-8.839 E.0037
G1 X45.689 Y36.286 E.15176
G1 X44.589 Y36.286 E.0037
G1 X44.589 Y-8.839 E.15176
G1 X43.489 Y-8.839 E.0037
G1 X43.489 Y36.286 E.15176
G1 X42.389 Y36.286 E.0037
G1 X42.389 Y-8.839 E.15176
G1 X41.289 Y-8.839 E.0037
G1 X41.289 Y36.286 E.15176
G1 X40.189 Y36.286 E.0037
G1 X40.189 Y-8.839 E.15176
G1 X39.089 Y-8.839 E.0037
G1 X39.089 Y36.286 E.15176
G1 X37.989 Y36.286 E.0037
G1 X37.989 Y-8.839 E.15176
G1 X36.889 Y-8.839 E.0037
G1 X36.889 Y36.286 E.15176
G1 X35.789 Y36.286 E.0037
M73 P8 R36
M73 Q8 S36
G1 X35.789 Y-8.839 E.15176
G1 X34.689 Y-8.839 E.0037
G1 X34.689 Y36.286 E.15176
G1 X33.588 Y36.286 E.0037
G1 X33.588 Y-8.839 E.15176
G1 X32.488 Y-8.839 E.0037
G1 X32.488 Y36.286 E.15176
G1 X31.388 Y36.286 E.0037
G1 X31.388 Y-8.839 E.15176
G1 X30.288 Y-8.839 E.0037
G1 X30.288 Y36.286 E.15176
G1 X29.188 Y36.286 E.0037
G1 X29.188 Y-8.839 E.15176
G1 X28.088 Y-8.839 E.0037
G1 X28.088 Y36.286 E.15176
G1 X26.988 Y36.286 E.0037
G1 X26.988 Y-8.839 E.15176
G1 X25.888 Y-8.839 E.0037
G1 X25.888 Y36.286 E.15176
G1 X24.788 Y36.286 E.0037
M73 P9 R36
M73 Q9 S36
G1 X24.788 Y-8.839 E.15176
G1 X23.688 Y-8.839 E.0037
M73 P9 R35
M73 Q9 S35
G1 X23.688 Y36.286 E.15176
G1 X22.588 Y36.286 E.0037
G1 X22.588 Y-8.839 E.15176
G1 X21.488 Y-8.839 E.0037
G1 X21.488 Y36.286 E.15176
G1 X20.387 Y36.286 E.0037
G1 X20.387 Y-8.839 E.15176
G1 X19.287 Y-8.839 E.0037
G1 X19.287 Y36.286 E.15176
G1 X18.187 Y36.286 E.0037
G1 X18.187 Y-8.839 E.15176
G1 X17.087 Y-8.839 E.0037
G1 X17.087 Y36.286 E.15176
G1 X15.987 Y36.286 E.0037
G1 X15.987 Y-8.839 E.15176
G1 X14.887 Y-8.839 E.0037
G1 X14.887 Y36.771 E.15339
;LAYER_CHANGE
;Z:0.3
;HEIGHT:0.1
;BEFORE_LAYER_CHANGE
G92 E0.0
;0.3


G1 E-1 F600
M73 P10 R35
M73 Q10 S35
G1 Z.3 F3000
;AFTER_LAYER_CHANGE
;0.3
;M300 S440 P200
;G4 P5000
G1 X14.887 Y36.771
G1 X18.225 Y37.095
G1 E1.001 F600
;TYPE:Perimeter
;WIDTH:1.1
G1 F1200
G1 X14.067 Y37.095 E.01398
G1 X14.067 Y-9.648 E.1572
G1 X60.81 Y-9.648 E.1572
G1 X60.81 Y13.724 E.0786
G1 X60.81 Y37.095 E.0786
G1 X18.36 Y37.095 E.14276
G1 X18.36 Y37.095 F3000
G1 X18.225 Y38.174
;TYPE:External perimeter
G1 F1200
G1 X12.989 Y38.174 E.01761
G1 X12.989 Y-10.726 E.16445
G1 X61.889 Y-10.726 E.16445
G1 X61.889 Y13.724 E.08223
G1 X61.889 Y38.174 E.08223
G1 X18.36 Y38.174 E.14639
G1 X17.46 Y38.174 F3000
G1 X60.487 Y36.275
;TYPE:Internal infill
;WIDTH:1.1
G1 F1200
G1 X14.876 Y36.275 E.15339
G1 X14.876 Y35.175 E.0037
M73 P11 R35
M73 Q11 S35
G1 X60.001 Y35.175 E.15176
G1 X60.001 Y34.075 E.0037
G1 X14.876 Y34.075 E.15176
G1 X14.876 Y32.975 E.0037
G1 X60.001 Y32.975 E.15176
G1 X60.001 Y31.875 E.0037
G1 X14.876 Y31.875 E.15176
G1 X14.876 Y30.775 E.0037
G1 X60.001 Y30.775 E.15176
G1 X60.001 Y29.675 E.0037
G1 X14.876 Y29.675 E.15176
G1 X14.876 Y28.575 E.0037
G1 X60.001 Y28.575 E.15176
G1 X60.001 Y27.475 E.0037
M73 P11 R34
M73 Q11 S34
G1 X14.876 Y27.475 E.15176
G1 X14.876 Y26.375 E.0037
G1 X60.001 Y26.375 E.15176
G1 X60.001 Y25.275 E.0037
G1 X14.876 Y25.274 E.15176
G1 X14.876 Y24.174 E.0037
G1 X60.001 Y24.174 E.15176
G1 X60.001 Y23.074 E.0037
M73 P12 R34
M73 Q12 S34
G1 X14.876 Y23.074 E.15176
G1 X14.876 Y21.974 E.0037
G1 X60.001 Y21.974 E.15176
G1 X60.001 Y20.874 E.0037
G1 X14.876 Y20.874 E.15176
G1 X14.876 Y19.774 E.0037
G1 X60.001 Y19.774 E.15176
G1 X60.001 Y18.674 E.0037
G1 X14.876 Y18.674 E.15176
G1 X14.876 Y17.574 E.0037
G1 X60.001 Y17.574 E.15176
G1 X60.001 Y16.474 E.0037
G1 X14.876 Y16.474 E.15176
G1 X14.876 Y15.374 E.0037
G1 X60.001 Y15.374 E.15176
G1 X60.001 Y14.274 E.0037
G1 X14.876 Y14.274 E.15176
G1 X14.876 Y13.174 E.0037
G1 X60.001 Y13.174 E.15176
G1 X60.001 Y12.073 E.0037
M73 P13 R34
M73 Q13 S34
G1 X14.876 Y12.073 E.15176
G1 X14.876 Y10.973 E.0037
G1 X60.001 Y10.973 E.15176
G1 X60.001 Y9.873 E.0037
G1 X14.876 Y9.873 E.15176
G1 X14.876 Y8.773 E.0037
G1 X60.001 Y8.773 E.15176
G1 X60.001 Y7.673 E.0037
G1 X14.876 Y7.673 E.15176
G1 X14.876 Y6.573 E.0037
G1 X60.001 Y6.573 E.15176
G1 X60.001 Y5.473 E.0037
G1 X14.876 Y5.473 E.15176
G1 X14.876 Y4.373 E.0037
G1 X60.001 Y4.373 E.15176
G1 X60.001 Y3.273 E.0037
G1 X14.876 Y3.273 E.15176
G1 X14.876 Y2.173 E.0037
G1 X60.001 Y2.173 E.15176
G1 X60.001 Y1.073 E.0037
M73 P14 R34
M73 Q14 S34
G1 X14.876 Y1.073 E.15176
G1 X14.876 Y-.028 E.0037
M73 P14 R33
G1 X60.001 Y-.027 E.15176
G1 X60.001 Y-1.128 E.0037
M73 Q14 S33
G1 X14.876 Y-1.128 E.15176
G1 X14.876 Y-2.228 E.0037
G1 X60.001 Y-2.228 E.15176
G1 X60.001 Y-3.328 E.0037
G1 X14.876 Y-3.328 E.15176
G1 X14.876 Y-4.428 E.0037
G1 X60.001 Y-4.428 E.15176
G1 X60.001 Y-5.528 E.0037
G1 X14.876 Y-5.528 E.15176
G1 X14.876 Y-6.628 E.0037
G1 X60.001 Y-6.628 E.15176
G1 X60.001 Y-7.728 E.0037
G1 X14.876 Y-7.728 E.15176
G1 X14.876 Y-8.828 E.0037
G1 X60.487 Y-8.828 E.15339
;LAYER_CHANGE
;Z:0.4
;HEIGHT:0.1
;BEFORE_LAYER_CHANGE
G92 E0.0
;0.4


G1 E-1 F600
M73 P15 R33
M73 Q15 S33
G1 Z.4 F3000
;AFTER_LAYER_CHANGE
;0.4
;M300 S440 P200
;G4 P5000
G1 X60.487 Y-8.828
G1 X14.067 Y-7.322
G1 E1.001 F600
;TYPE:Perimeter
;WIDTH:1.1
G1 F1200
G1 X14.067 Y-9.648 E.00782
G1 X60.81 Y-9.648 E.1572
G1 X60.81 Y13.724 E.0786
G1 X60.81 Y37.095 E.0786
G1 X14.067 Y37.095 E.1572
G1 X14.067 Y-7.187 E.14892
G1 X14.067 Y-7.187 F3000
G1 X12.989 Y-7.322
;TYPE:External perimeter
G1 F1200
G1 X12.989 Y-10.726 E.01145
G1 X61.889 Y-10.726 E.16445
G1 X61.889 Y13.724 E.08223
G1 X61.889 Y38.174 E.08223
G1 X12.989 Y38.174 E.16445
G1 X12.989 Y-7.187 E.15255
G1 X12.989 Y-8.087 F3000
G1 X14.887 Y36.771
;TYPE:Internal infill
;WIDTH:1.1
G1 F1200
G1 X14.887 Y-8.839 E.15339
G1 X15.987 Y-8.839 E.0037
M73 P16 R33
M73 Q16 S33
G1 X15.987 Y36.286 E.15176
G1 X17.087 Y36.286 E.0037
G1 X17.087 Y-8.839 E.15176
G1 X18.187 Y-8.839 E.0037
G1 X18.187 Y36.286 E.15176
G1 X19.287 Y36.286 E.0037
G1 X19.287 Y-8.839 E.15176
G1 X20.387 Y-8.839 E.0037
G1 X20.387 Y36.286 E.15176
G1 X21.488 Y36.286 E.0037
G1 X21.488 Y-8.839 E.15176
G1 X22.588 Y-8.839 E.0037
G1 X22.588 Y36.286 E.15176
G1 X23.688 Y36.286 E.0037
M73 P16 R32
M73 Q16 S32
G1 X23.688 Y-8.839 E.15176
G1 X24.788 Y-8.839 E.0037
G1 X24.788 Y36.286 E.15176
G1 X25.888 Y36.286 E.0037
G1 X25.888 Y-8.839 E.15176
G1 X26.988 Y-8.839 E.0037
M73 P17 R32
M73 Q17 S32
G1 X26.988 Y36.286 E.15176
G1 X28.088 Y36.286 E.0037
G1 X28.088 Y-8.839 E.15176
G1 X29.188 Y-8.839 E.0037
G1 X29.188 Y36.286 E.15176
G1 X30.288 Y36.286 E.0037
G1 X30.288 Y-8.839 E.15176
G1 X31.388 Y-8.839 E.0037
G1 X31.388 Y36.286 E.15176
G1 X32.488 Y36.286 E.0037
G1 X32.488 Y-8.839 E.15176
G1 X33.588 Y-8.839 E.0037
G1 X33.588 Y36.286 E.15176
G1 X34.689 Y36.286 E.0037
G1 X34.689 Y-8.839 E.15176
G1 X35.789 Y-8.839 E.0037
G1 X35.789 Y36.286 E.15176
G1 X36.889 Y36.286 E.0037
G1 X36.889 Y-8.839 E.15176
G1 X37.989 Y-8.839 E.0037
G1 X37.989 Y36.286 E.15176
G1 X39.089 Y36.286 E.0037
M73 P18 R32
M73 Q18 S32
G1 X39.089 Y-8.839 E.15176
G1 X40.189 Y-8.839 E.0037
G1 X40.189 Y36.286 E.15176
G1 X41.289 Y36.286 E.0037
G1 X41.289 Y-8.839 E.15176
G1 X42.389 Y-8.839 E.0037
G1 X42.389 Y36.286 E.15176
G1 X43.489 Y36.286 E.0037
G1 X43.489 Y-8.839 E.15176
G1 X44.589 Y-8.839 E.0037
G1 X44.589 Y36.286 E.15176
G1 X45.689 Y36.286 E.0037
G1 X45.689 Y-8.839 E.15176
G1 X46.79 Y-8.839 E.0037
G1 X46.79 Y36.286 E.15176
G1 X47.89 Y36.286 E.0037
G1 X47.89 Y-8.839 E.15176
G1 X48.99 Y-8.839 E.0037
G1 X48.99 Y36.286 E.15176
G1 X50.09 Y36.286 E.0037
M73 P19 R32
M73 Q19 S32
G1 X50.09 Y-8.839 E.15176
G1 X51.19 Y-8.839 E.0037
G1 X51.19 Y36.286 E.15176
G1 X52.29 Y36.286 E.0037
M73 P19 R31
M73 Q19 S31
G1 X52.29 Y-8.839 E.15176
G1 X53.39 Y-8.839 E.0037
G1 X53.39 Y36.286 E.15176
G1 X54.49 Y36.286 E.0037
G1 X54.49 Y-8.839 E.15176
G1 X55.59 Y-8.839 E.0037
G1 X55.59 Y36.286 E.15176
G1 X56.69 Y36.286 E.0037
G1 X56.69 Y-8.839 E.15176
G1 X57.79 Y-8.839 E.0037
G1 X57.79 Y36.286 E.15176
G1 X58.89 Y36.286 E.0037
G1 X58.89 Y-8.839 E.15176
G1 X59.991 Y-8.839 E.0037
G1 X59.991 Y36.771 E.15339
;LAYER_CHANGE
;Z:0.5
;HEIGHT:0.1
;BEFORE_LAYER_CHANGE
G92 E0.0
;0.5


G1 E-1 F600
M73 P20 R31
M73 Q20 S31
G1 Z.5 F3000
;AFTER_LAYER_CHANGE
;0.5
;M300 S440 P200
;G4 P5000
G1 X59.991 Y36.771
G1 X23.232 Y37.095
G1 E1.001 F600
;TYPE:Perimeter
;WIDTH:1.1
G1 F1200
G1 X14.067 Y37.095 E.03082
G1 X14.067 Y-9.648 E.1572
G1 X60.81 Y-9.648 E.1572
G1 X60.81 Y13.724 E.0786
G1 X60.81 Y37.095 E.0786
G1 X23.367 Y37.095 E.12592
G1 X23.367 Y37.095 F3000
G1 X23.232 Y38.174
;TYPE:External perimeter
G1 F1200
G1 X12.989 Y38.174 E.03445
G1 X12.989 Y-10.726 E.16445
G1 X61.889 Y-10.726 E.16445
G1 X61.889 Y13.724 E.08223
G1 X61.889 Y38.174 E.08223
G1 X23.367 Y38.174 E.12955
G1 X22.467 Y38.174 F3000
G1 X60.487 Y36.275
;TYPE:Internal infill
;WIDTH:1.1
G1 F1200
G1 X14.876 Y36.275 E.15339
G1 X14.876 Y35.175 E.0037
M73 P21 R31
M73 Q21 S31
G1 X60.001 Y35.175 E.15176
G1 X60.001 Y34.075 E.0037
G1 X14.876 Y34.075 E.15176
G1 X14.876 Y32.975 E.0037
G1 X60.001 Y32.975 E.15176
G1 X60.001 Y31.875 E.0037
G1 X14.876 Y31.875 E.15176
G1 X14.876 Y30.775 E.0037
G1 X60.001 Y30.775 E.15176
G1 X60.001 Y29.675 E.0037
G1 X14.876 Y29.675 E.15176
G1 X14.876 Y28.575 E.0037
G1 X60.001 Y28.575 E.15176
G1 X60.001 Y27.475 E.0037
M73 P21 R30
G1 X14.876 Y27.475 E.15176
G1 X14.876 Y26.375 E.0037
M73 Q21 S30
G1 X60.001 Y26.375 E.15176
G1 X60.001 Y25.275 E.0037
G1 X14.876 Y25.274 E.15176
G1 X14.876 Y24.174 E.0037
M73 P22 R30
M73 Q22 S30
G1 X60.001 Y24.174 E.15176
G1 X60.001 Y23.074 E.0037
G1 X14.876 Y23.074 E.15176
G1 X14.876 Y21.974 E.0037
G1 X60.001 Y21.974 E.15176
G1 X60.001 Y20.874 E.0037
G1 X14.876 Y20.874 E.15176
G1 X14.876 Y19.774 E.0037
G1 X60.001 Y19.774 E.15176
G1 X60.001 Y18.674 E.0037
G1 X14.876 Y18.674 E.15176
G1 X14.876 Y17.574 E.0037
G1 X60.001 Y17.574 E.15176
G1 X60.001 Y16.474 E.0037
G1 X14.876 Y16.474 E.15176
G1 X14.876 Y15.374 E.0037
G1 X60.001 Y15.374 E.15176
G1 X60.001 Y14.274 E.0037
G1 X14.876 Y14.274 E.15176
G1 X14.876 Y13.174 E.0037
G1 X60.001 Y13.174 E.15176
G1 X60.001 Y12.073 E.0037
M73 P23 R30
M73 Q23 S30
G1 X14.876 Y12.073 E.15176
G1 X14.876 Y10.973 E.0037
G1 X60.001 Y10.973 E.15176
G1 X60.001 Y9.873 E.0037
G1 X14.876 Y9.873 E.15176
G1 X14.876 Y8.773 E.0037
G1 X60.001 Y8.773 E.15176
G1 X60.001 Y7.673 E.0037
G1 X14.876 Y7.673 E.15176
G1 X14.876 Y6.573 E.0037
G1 X60.001 Y6.573 E.15176
G1 X60.001 Y5.473 E.0037
G1 X14.876 Y5.473 E.15176
G1 X14.876 Y4.373 E.0037
G1 X60.001 Y4.373 E.15176
G1 X60.001 Y3.273 E.0037
G1 X14.876 Y3.273 E.15176
G1 X14.876 Y2.173 E.0037
G1 X60.001 Y2.173 E.15176
G1 X60.001 Y1.073 E.0037
M73 P24 R30
M73 Q24 S30
G1 X14.876 Y1.073 E.15176
G1 X14.876 Y-.028 E.0037
G1 X60.001 Y-.027 E.15176
G1 X60.001 Y-1.128 E.0037
M73 P24 R29
G1 X14.876 Y-1.128 E.15176
M73 Q24 S29
G1 X14.876 Y-2.228 E.0037
G1 X60.001 Y-2.228 E.15176
G1 X60.001 Y-3.328 E.0037
G1 X14.876 Y-3.328 E.15176
G1 X14.876 Y-4.428 E.0037
G1 X60.001 Y-4.428 E.15176
G1 X60.001 Y-5.528 E.0037
G1 X14.876 Y-5.528 E.15176
G1 X14.876 Y-6.628 E.0037
G1 X60.001 Y-6.628 E.15176
G1 X60.001 Y-7.728 E.0037
G1 X14.876 Y-7.728 E.15176
G1 X14.876 Y-8.828 E.0037
G1 X60.487 Y-8.828 E.15339
;LAYER_CHANGE
;Z:0.6
;HEIGHT:0.1
;BEFORE_LAYER_CHANGE
G92 E0.0
;0.6


G1 E-1 F600
M73 P25 R29
M73 Q25 S29
G1 Z.6 F3000
;AFTER_LAYER_CHANGE
;0.6
;M300 S440 P200
;G4 P5000
G1 X60.487 Y-8.828
G1 X20.449 Y-9.648
G1 E1.001 F600
;TYPE:Perimeter
;WIDTH:1.1
G1 F1200
